icons/coffeescript-dark.svg

<svg xmlns="http://www.w3.org/2000/svg" width="256" height="256" fill="none" viewBox="0 0 256 256"><rect width="256" height="256" fill="#282828" rx="60"/><path fill="#fff" d="M66.708 90.6797C84.1702 95.123 106.52 97.3446 133.402 97.3446C160.906 97.3446 182.723 95.123 200.14 90.6797C218.713 86.3697 227.645 80.5489 227.645 75.0392C227.645 71.1291 223.646 67.3079 216.403 64.3753C218.047 65.4861 219.336 67.3079 219.336 69.3074C219.336 74.9059 210.893 79.4825 194.009 83.3038C178.324 86.7251 158.373 89.1689 134.024 89.1689C110.519 89.1689 89.6355 86.7251 74.5282 83.5259C58.3101 79.527 49.8234 75.217 49.8234 69.5295C49.8234 67.1746 50.8898 65.1751 54.1334 62.8646C44.0027 66.7747 38.493 70.1072 38.493 75.0837C39.0706 80.7267 48.135 86.3697 66.708 90.6797ZM105.765 72.7287C124.693 71.0847 130.203 58.91 152.375 56.9105C163.261 56.0663 170.193 58.2435 170.904 62.0648C171.57 65.6639 166.149 68.0632 159.573 68.552C150.509 69.4851 146.776 66.2415 146.021 63.1312C139.267 63.8865 138.201 66.7302 138.556 68.6853C139.312 72.5065 147.443 76.3722 161.484 75.0392C177.302 73.7951 182.634 67.5745 181.301 61.3094C179.657 53.1337 167.482 46.291 145.666 48.3794C117.673 50.8676 117.85 63.8865 98.7887 65.4417C90.9685 66.197 86.614 64.3309 85.8586 61.265C85.3699 58.1547 89.1911 56.6884 93.6789 56.3329C97.8556 55.8886 102.921 56.6439 105.32 57.9769C107.098 57.0438 107.675 56.1107 107.498 55.0444C106.653 52.1562 100.877 50.8676 93.6789 51.4008C79.5047 52.645 79.5047 58.9989 79.9935 61.7982C81.3265 69.1296 92.257 73.9728 105.765 72.7287ZM200.896 104.676C183.389 108.764 161.084 111.43 134.157 111.43C106.698 111.43 84.3035 108.586 66.8857 104.765C51.2453 100.766 42.8919 96.3227 39.9593 91.7905C41.47 102.01 44.0471 111.919 47.3796 121.338C43.3806 123.827 39.7816 126.937 36.538 131.114C30.5839 138.356 27.5625 147.554 28.0512 156.929C28.6733 165.549 32.9833 173.503 39.9149 178.746C47.1575 184.389 54.9777 186.077 63.9087 184.389C67.3301 183.811 71.1513 182.078 74.6615 180.923C67.3301 180.923 61.1539 178.568 55.0221 173.681C48.2683 169.015 43.7805 161.684 42.5808 153.552C40.9368 145.732 42.5808 138.445 47.0242 132.047C48.0461 130.803 49.1125 129.692 50.2678 128.714C52.756 134.802 55.422 140.8 58.4434 146.354C65.1973 156.618 71.9511 165.505 78.7049 175.191C81.6375 180.834 83.5037 186.433 84.8367 192.031C89.3689 198.297 95.945 202.695 103.41 204.517C113.007 207.85 123.005 209.36 133.224 208.783H134.291C144.688 209.227 155.13 207.761 165.038 204.473C172.192 202.34 178.502 197.985 183.034 192.031H183.611C184.678 186.477 186.5 180.879 189.166 175.191C195.83 165.46 202.673 156.618 209.338 146.354C218.536 129.381 224.845 110.941 228 91.8794C224.356 96.9003 215.959 101.255 200.896 104.676Z"/></svg>

<svg xmlns="http://www.w3.org/2000/svg" width="256" height="256" fill="none"><rect width="256" height="256" fill="#282828" rx="60"/><path fill="#fff" d="M66.708 90.68c17.462 4.443 39.812 6.665 66.694 6.665 27.504 0 49.321-2.222 66.738-6.665 18.573-4.31 27.505-10.131 27.505-15.64 0-3.91-3.999-7.732-11.242-10.665 1.644 1.111 2.933 2.933 2.933 4.932 0 5.599-8.443 10.176-25.327 13.997-15.685 3.421-35.636 5.865-59.985 5.865-23.505 0-44.389-2.444-59.496-5.643-16.218-3.999-24.705-8.309-24.705-13.996 0-2.355 1.067-4.355 4.31-6.665-10.13 3.91-15.64 7.242-15.64 12.219.578 5.643 9.642 11.286 28.215 15.596m39.057-17.951c18.928-1.644 24.438-13.819 46.61-15.818 10.886-.845 17.818 1.332 18.529 5.154.666 3.599-4.755 5.998-11.331 6.487-9.064.933-12.797-2.31-13.552-5.42-6.754.755-7.82 3.598-7.465 5.553.756 3.822 8.887 7.687 22.928 6.354 15.818-1.244 21.15-7.465 19.817-13.73-1.644-8.175-13.819-15.018-35.635-12.93-27.993 2.489-27.816 15.508-46.877 17.063-7.82.755-12.175-1.111-12.93-4.177-.49-3.11 3.332-4.577 7.82-4.932 4.177-.444 9.242.31 11.641 1.644 1.778-.933 2.355-1.866 2.178-2.933-.845-2.888-6.621-4.176-13.82-3.643-14.173 1.244-14.173 7.598-13.684 10.397 1.332 7.332 12.263 12.175 25.771 10.93m95.131 31.947c-17.507 4.088-39.812 6.754-66.739 6.754-27.459 0-49.854-2.844-67.271-6.665-15.64-3.999-23.994-8.442-26.927-12.975 1.511 10.22 4.088 20.129 7.42 29.548-3.998 2.489-7.597 5.599-10.841 9.776a37.54 37.54 0 0 0-8.487 25.815 30.07 30.07 0 0 0 11.864 21.817c7.243 5.643 15.063 7.331 23.994 5.643 3.421-.578 7.242-2.311 10.753-3.466-7.332 0-13.508-2.355-19.64-7.242-6.754-4.666-11.241-11.997-12.441-20.129-1.644-7.82 0-15.107 4.443-21.505 1.022-1.244 2.088-2.355 3.244-3.333 2.488 6.088 5.154 12.086 8.175 17.64 6.754 10.264 13.508 19.151 20.262 28.837 2.933 5.643 4.799 11.242 6.132 16.84a32.35 32.35 0 0 0 18.573 12.486c9.597 3.333 19.595 4.843 29.814 4.266h1.067a86.1 86.1 0 0 0 30.747-4.31 35.3 35.3 0 0 0 17.996-12.442h.577c1.067-5.554 2.889-11.152 5.555-16.84 6.664-9.731 13.507-18.573 20.172-28.837A174 174 0 0 0 228 91.879c-3.644 5.021-12.041 9.376-27.104 12.797"/></svg>
